X:1
T:Title
%%score ( 1 2 ) { 3 | 4 }
L:1/8
Q:1/4=115
M:4/4
K:Ab
V:1 treble nm="Grand Piano, Staff 1"
V:2 treble 
V:3 bass nm="Choir Pad, Schumann, SM"
V:4 bass 
V:1
 [CE]2 [CA]2 E2 [EF]2 | [DG]2 [CA]6 | [CA]2 [Dd]2 [Ec]2 [FB]2 | [FA]2 A4 G2 | %4
w: By~Mason~&~Webb�s~Cantica~Laudis,~1850 * * *||||
 [EG]2 [EA]2 E2 [EF]2 | [DG]2 [CA]2 [EB]2 [Ec]2 | [_Ge]2 [Fd]2 [FB]2 [EA]2 | [DG]2 [CA]6- | %8
w: ||||
 [CA]2 z2 z4 |] %9
w: |
V:2
 x8 | x8 | x8 | z2 E6 | x8 | x8 | x8 | x8 | x8 |] %9
V:3
 A,2 A,2 A,2 A,2 | E,2 E,6 | A,2 A,2 A,2 D2 | _C2 B,6 | B,2 C2 A,2 A,2 | B,2 A,2 G,2 A,2 | %6
 A,2 B,2 D2 C2 | B,2 A,6- | A,2 z2 z4 |] %9
V:4
 A,,2 A,,2 C,2 D,2 | B,,2 A,,6 | _G,2 F,2 E,2 D,2 | =D,2 E,6 | E,2 A,,2 C,2 D,2 | B,,2 F,2 E,2 z2 | %6
 C,2 D,2 D,2 E,2 | E,2 A,,6- | A,,2 z2 z4 |] %9

